X: 1
T: Dancing Bear, The (R-116)
C: Bob McQuillen  2/22/78
M: C|
Z: Transcribed to abc by Mary Lou Knack
R: reel
K: Em
"Em"EFGF EFGF| EFGA G2E2| "A"EFGF EFGF| EFGA G2E2|
"C"EFGF EFGF| EFGA B2e2| "B7"B2Bc BAGF| "Em"G2E2 E4 :|
|:"Em"e2ef gfef| gfe2 e4| "A"e2ef gfef| gfe2 e4|
"C"e2ef gfef| gfe2 e2dc| "B7"BABc BcBA| "Em"GFE2 E4 :|

